X:1
T:Cannons, LM
T:George Frederick Handel (1685-1759)
T:Cannons, LM
T:Public Domain
C:George Frederick Handel (1685-1759)
Z:Public Domain
%%score ( 1 2 ) ( 3 4 )
L:1/8
M:4/4
K:Bb
V:1 treble 
V:2 treble 
V:3 bass 
V:4 bass 
V:1
 [DG]2 | D3 [C^F] [DG]2 [DA]2 | D2 z c [DA]2 [DB]2 | F3 [EA] [FB]2 [Fc]2 | F2 z e [Fc]2 [Fd]2 | %5
 [Be]3 [Ad] [Gc]2 [FB]2 | [EA]2 [CG]2 [D^F]2 [FA]2 | [Gd]2 G2 (cd) [GB]2 | [GA]2 [^FA]2 G2 |] %9
V:2
 x2 | D3 x5 | B3 E2 x3 | F3 x5 | d3 G2 x3 | x8 | x8 | x2 G2 ^F2 x2 | x4 G2 |] %9
V:3
 [G,,B,]2 | [B,,G,]3 [A,,A,] [G,,B,]2 [D,^F,]2 | G,2 [C,G,]2 [D,^F,]2 [B,,=F,]2 | %3
 [D,B,]3 [C,C] [B,,D]2 [F,A,]2 | B,2 [E,B,]2 [F,A,]2 B,2 | [G,B,]3 [F,D] [E,E]2 [D,B,]2 | %6
 [C,C]2 [E,G,]2 [D,A,]2 [D,D]2 | [B,,D]2 [C,E]2 [A,,C]2 [G,,D]2 | D,2 z C [G,,B,]2 |] %9
V:4
 x2 | x8 | G,2 x6 | x8 | B,2 x2 B,2 x2 | x8 | x8 | x8 | D3 D,2 x |] %9

